Adwaita++-Dark/actions/16/media-playback-start.svg

<svg fill="none" height="16" viewBox="0 0 16 16" width="16" xmlns="http://www.w3.org/2000/svg">
  <path d="m3.0313 2.99997v10.00003h.90625.0937c.17491.001.34778-.0388.5-.125l6.99995-4.00003c.3107-.17189.4688-.52345.4688-.875s-.1581-.70311-.4688-.875l-6.99995-4c-.15222-.0862-.32509-.12631-.5-.125h-.0937z" fill="#e6ddff"/>
</svg>

<svg xmlns="http://www.w3.org/2000/svg" fill="none" width="16" height="16" viewBox="0 0 16 16">
 <path fill="#E6DDFF" d="M3.0313 2.99997V13H3.93755H4.03125C4.20616 13.001 4.37903 12.9612 4.53125 12.875L11.5312 8.87497C11.8419 8.70308 12 8.35152 12 7.99997C12 7.64842 11.8419 7.29686 11.5312 7.12497L4.53125 3.12497C4.37903 3.03877 4.20616 2.99866 4.03125 2.99997H3.93755H3.0313Z"/>
</svg>
